X:
T:Svingedans
T:efter Anders Nilsson
O:Vallösa, Skåne
Z:Åke Persson, 2012-04-11
R:Svingedans
M:3/4
L:1/8
Q:1/4=108
%%printtempo 0
%%MIDI ratio 2 1
K:G
|: d>g b2 a>(f | g)>e d2 B2 | (3ded (cA) FA | (3cdc (BA) GB | 
   d>g b2 a>(f | g)>e d2 B2 | (3ded (cA) FA | (df) g2 z2 :|
|: d>d f>(f a2) | d>d g>(g b2) | d>d f>(f a2) | d>d g>(g b2) |
   d>g b2 a>(f | g)>e d2 B2 | (3ded (cA) FA | (df) g2 z2 :|
(:musicend:)

(:music:)
